build/redact/ListStyleOutline.svg

<svg xmlns="http://www.w3.org/2000/svg" fill="none" viewBox="0 0 24 24" focusable="false"><path d="M0 0H24V24H0z"/><path fill="#74767B" fill-rule="evenodd" d="M4.03467 6.74998C4.03467 6.39099 4.32568 6.09998 4.68467 6.09998L19.3498 6.09998C19.7088 6.09998 19.9998 6.39099 19.9998 6.74998C19.9998 7.10896 19.7088 7.39998 19.3498 7.39998L4.68467 7.39998C4.32568 7.39998 4.03467 7.10896 4.03467 6.74998ZM4.03467 12.05C4.03467 11.691 4.32568 11.4 4.68467 11.4L19.3498 11.4C19.7088 11.4 19.9998 11.691 19.9998 12.05C19.9998 12.409 19.7088 12.7 19.3498 12.7L4.68467 12.7C4.32568 12.7 4.03467 12.409 4.03467 12.05ZM4.68467 16.7C4.32568 16.7 4.03467 16.991 4.03467 17.35C4.03467 17.709 4.32568 18 4.68467 18L19.3498 18C19.7088 18 19.9998 17.709 19.9998 17.35C19.9998 16.991 19.7088 16.7 19.3498 16.7L4.68467 16.7Z"/></svg>

<svg xmlns="http://www.w3.org/2000/svg" fill="none" viewBox="0 0 24 24" focusable="false"><path fill="#74767B" fill-rule="evenodd" d="M4.03 6.74c0-.35.29-.65.65-.65h14.66c.36 0 .66.3.66.65 0 .36-.3.65-.66.65H4.68c-.36 0-.65-.29-.65-.65m0 5.31c0-.36.29-.65.65-.65h14.66c.36 0 .66.29.66.65 0 .35-.3.65-.66.65H4.68c-.36 0-.65-.3-.65-.65m.65 4.65c-.36 0-.65.29-.65.65 0 .35.29.65.65.65h14.66c.36 0 .66-.3.66-.65 0-.36-.3-.65-.66-.65z"/></svg>
